X: 15
T: Prelude in D\b Major, Op. 28, No. 15
C: Frederic Chopin
%%abc-version 2.0
%%abcx-abcm2ps-target-version 5.9.1 (29 Sep 2008)
%%abc-creator hum2abc beta
%%abcx-conversion-date 2021/01/25 16:34:27
%%abc-copyright Copyright 2008 by Craig Stuart Sapp
%%abc-edited-by Craig Stuart Sapp
%%abcx-initial-encoding-date 2008/01/15/
%%gracespace 0 6 6
%%humdrum-veritas 1193370656
%%humdrum-veritas-data 2734953148
%%linebreak <none>
%%barnumbers 0
L: 1/8
M: 4/4
N: Derived from prelude28-15.krn
Q: "Sostenuto" 1/4=104
%%staves {1 2}
V: 1 clef=treble
V: 2 clef=bass
K: Db
[V:1] f>dA4B2 | 
[V:2] D,A,[DF]A, A,A,[DF]A, | 
[V:1] c6d2 | 
[V:2] [EG]A,A,A, B,A,[DF]A, | 
[V:1] e>fg4f2 | 
[V:2] [CG]A,/A/BA, A,A,[DA]A, | 
[V:1] f2>e2d2{/e} (7:4:7e/f/e/=d/e/f/g/ | 
[V:2] [CA]A,GA, [DF]A,[CG]A, | 
[V:1] f>dA4B2 | 
[V:2] D,A,[DF]A, A,A,A,A, | 
[V:1] c6d2 | 
[V:2] [EG]A,A,A, B,A,[DF]A, | 
[V:1] e>fg4f2 | 
[V:2] [CG]A,/A/BA, A,A,[DA]A, | 
[V:1] f2>e2d2cd | 
[V:2] [CA]A,GA, [DF]A,[DF]A, | 
[V:1] e2e4f2 | 
[V:2] A,,A,[CE]A, [_CE]A,[D,CF]D | 
[V:1] gfedf4 | 
[V:2] [G,B,]D[B,G]D D,A,[DF]A, | 
[V:1] e_cBAB2{/c2B2A2} B3/c/ | 
[V:2] E,A,[_CE]A, E,=G,[DE]G, | 
[V:1] A2e2d2_f2 | 
[V:2] A,,A,[_CE]A, [B,D]A,[D_F]A, | 
[V:1] e2e4f2 | 
[V:2] A,,A,[_CE]A, A,A,[CF]A, | 
[V:1] gfedf4- | 
[V:2] E,G,[B,G]G, B,,F,[B,DF]F, | 
[V:1] fdcBc2{/d2c2B2} cd | 
[V:2] F,,F,[B,DF]F, F,,F,[=A,EF]F, | 
[V:1] B2f2e2g2 | 
[V:2] B,,F,[DF]F, [CE]F,[EG]F, | 
[V:1] fdcBc2{/d2c2B2} c3/d/ | 
[V:2] [DF]F,[B,DF]F, [=A,E]F,[EF]F, | 
[V:1] B2e2f2e2 | 
[V:2] B,,F,[CE]F, [DF]F,[CE]F, | 
[V:1] f6e2 | 
[V:2] [DF]F,F,F, [DF]G,[CE]A, | 
[V:1] f>dA4B2 | 
[V:2] D,A,[DF]A, A,A,[DF]A, | 
[V:1] c6d2 | 
[V:2] [EG]A,A,A, B,A,[DF]A, | 
[V:1] e>fg4f2 | 
[V:2] [CG]A,/A/BA, A,A,[DA]A, | 
[V:1] f2>e2d2(7:4:7=d/e/=e/f/a/=g/_g/ | 
[V:2] [CA]A,[CG]A, [DF]A,[CG]A, | 
[V:1] f>dA4B2 | 
[V:2] D,A,[DF]A, A,A,A,A, | 
[V:1] c6d2 | 
[V:2] [EG]A,A,A, B,A,[DF]A, | 
[V:1] e>fg4c2 | 
[V:2] [CG]A,/A/BA, A,A,EA, | 
[V:1] e4z4 | 
[V:2] GA,A,A, A,A,A,A, | 
[V:1]  [K:E] G,G,G,G, G,G,G,G, | 
[V:2]  [K:E] [C,,2G,,2][D,,2G,,2][E,,2C,2][D,,2^B,,2] | 
[V:1] G,G,G,G, G,G,G,G, | 
[V:2] [D,,2G,,2][E,,2G,,2][F,,2D,2][E,,2C,2] | 
[V:1] G,G,G,G, G,G,G,G, | 
[V:2] [E,,2C,2][G,,2D,2][C,2E,2][G,,2D,2] | 
[V:1] G,G,G,G, G,G,G,G, | 
[V:2] [G,,8D,8]- | 
[V:1] G,G,G,G, G,G,G,G, | 
[V:2] [G,,2D,2][C,2E,2][G,,2D,2][E,,2C,2] | 
[V:1] G,G,G,G, G,G,G,G, | 
[V:2] [G,,2D,2][E,,2C,2][D,,2^B,,2][E,,2C,2] | 
[V:1] G,G,G,G, G,G,G,G, | 
[V:2] [D,,2^B,,2][E,,2C,2][D,,2D,2][C,,2E,2] | 
[V:1] G,[G,G][G,G][G,G] [G,G][G,G][G,G][G,G] | 
[V:2] [G,,8D,8] | 
[V:1] [G,G][G,G][G,G][G,G] [G,G][G,G][G,G][G,G] & z4C2^B,2 | 
[V:2] [C,,2G,,2][D,,2G,,2][E,,2C,2][D,,2^B,,2] | 
[V:1] [G,G][G,G][G,G][G,G] [G,G][G,G][G,G][G,G] & z4D2C2- | 
[V:2] [D,,2G,,2][E,,2G,,2][F,,2D,2][E,,2C,2] | 
[V:1] C2D2E2D2 & [G,G][G,G][G,G][G,G] [G,G][G,G][G,G][G,G] | 
[V:2] [E,,2C,2][G,,2D,2][C,2E,2][G,,2D,2] | 
[V:1] D8 & [G,G][G,G][G,G][G,G] [G,G][G,G][G,G][G,G] | 
[V:2] {/G,,,}[G,,8D,8] | 
[V:1] !accent![E4G4]!accent![D4G4] & [B,B][B,B][B,B][B,B] [B,B][B,B][B,B][B,B] | 
[V:2] [E,,,4E,,4][B,,,4B,,4] | 
[V:1] !accent![E4G4]!accent![D4G4] & [B,B][B,B][B,B][B,B] [B,B][B,B][B,B][B,B] | 
[V:2] [E,,,4E,,4][B,,,3B,,3][^A,,,^A,,] | 
[V:1] [B,B][B,B][B,B][B,B] [B,B][B,B][B,B][B,B] & !accent![D4G4]!accent![D4^^F4] | 
[V:2] [G,,,4G,,4][D,,4D,4] | 
[V:1] !accent![B,DGB]G,G,G, G,G,G,G, | 
[V:2] [G,,,4G,,4]z4 | 
[V:1] G,G,G,G, G,G,G,G, | 
[V:2] [C,,2G,,2][D,,2G,,2][E,,2C,2][D,,2^B,,2] | 
[V:1] G,G,G,G, G,G,G,G, | 
[V:2] [D,,2G,,2][E,,2G,,2][F,,2D,2][E,,2C,2] | 
[V:1] G,G,G,G, G,G,G,G, | 
[V:2] [E,,2C,2][G,,2D,2][C,2E,2][G,,2D,2] | 
[V:1] G,G,G,G, G,G,G,G, | 
[V:2] [G,,8D,8]- | 
[V:1] G,G,G,G, G,G,G,G, | 
[V:2] [G,,2D,2][C,2E,2][G,,2D,2][E,,2C,2] | 
[V:1] G,G,G,G, G,G,G,G, | 
[V:2] [G,,2D,2][E,,2C,2][D,,2^B,,2][E,,2C,2] | 
[V:1] G,G,G,G, G,G,G,G, | 
[V:2] [D,,2^B,,2][E,,2C,2][D,,2D,2][C,,2E,2] | 
[V:1] G,[G,G][G,G][G,G] [G,G][G,G][G,G][G,G] | 
[V:2] [G,,8D,8] | 
[V:1] [G,G][G,G][G,G][G,G] [G,G][G,G][G,G][G,G] & z4C2^B,2 | 
[V:2] [C,,2G,,2][D,,2G,,2][E,,2C,2][D,,2^B,,2] | 
[V:1] [G,G][G,G][G,G][G,G] [G,G][G,G][G,G][G,G] & z4D2C2- | 
[V:2] [D,,2G,,2][E,,2G,,2][F,,2D,2][E,,2C,2] | 
[V:1] C2D2E2D2 & [G,G][G,G][G,G][G,G] [G,G][G,G][G,G][G,G] | 
[V:2] [E,,2C,2][G,,2D,2][C,2E,2][G,,2D,2] | 
[V:1] D8 & [G,G][G,G][G,G][G,G] [G,G][G,G][G,G][G,G] | 
[V:2] {/G,,,}[G,,8D,8] | 
[V:1] !accent![E4G4]!accent![D4G4] & [B,B][B,B][B,B][B,B] [B,B][B,B][B,B][B,B] | 
[V:2] [E,,,4E,,4][B,,,4B,,4] | 
[V:1] !accent![E4G4]!accent![D4G4] & [B,B][B,B][B,B][B,B] [B,B][B,B][B,B][B,B] | 
[V:2] [E,,,4E,,4][B,,,3B,,3][^A,,,^A,,] | 
[V:1] [B,B][B,B][B,B][B,B] [B,B][B,B][B,B][B,B] & !accent![D4G4]!accent![D4^^F4] | 
[V:2] [G,,,4G,,4][D,,4D,4] | 
[V:1] !accent![B,DGB]GGG GGGG | 
[V:2] [G,,,4G,,4]z4 | 
[V:1] GGGG GGGG & [^B,4^B4][C4c4] | 
[V:2] [F,,4G,,4F,4][E,,2E,2][C,,2C,2] & z4G,,4 | 
[V:1] [D6c6d6][D2^B2d2] & GGGG GGGG | 
[V:2] [G,,,6G,,6][G,,2G,2] | 
[V:1] [E2d2e2][E2c2e2][D2c2d2][D2^B2d2] & GGGG GGGG | 
[V:2] [C,4G,4][G,,4G,4] | 
[V:1] GG FF GG AA & [C8c8] | 
[V:2] [A,,4A,4][G,,2G,2][F,,2F,2] | 
[V:1] [^B,4D4G4][C2E2G2][^A,2C2G2] | 
[V:2] G,G,G,G, G,G,G,G, & G,,4[C,,4G,,4] | 
[V:1] [^B,2D2G2][C2E2G2][^A,2C2G2][C2E2G2] | 
[V:2] G,G,G,G, G,G,G,G, & [G,,,2G,,2]!accent![C,,6G,,6] | 
[V:1] [C2E2G2][^B,2D2G2][D2F2G2][C2E2G2] | 
[V:2] G,G,G,G, G,G,G,G, & [C,,2G,,2]!accent![G,,,4G,,4][C,,2G,,2] | 
[V:1] [^B,8D8G8] | 
[V:2] G,G,G,G, G,G,G,G, & [G,,,8G,,8] | 
[V:1] GGGG GGGG & [^B,4D4^B4][C4c4] | 
[V:2] [F,,4F,4][E,,2G,,2E,2][C,,2C,2] & G,,G,,G,,G,,z4 | 
[V:1] [D6c6d6][D2^B2d2] & GGGG GGGG | 
[V:2] [G,,,8G,,8] | 
[V:1] [E2d2e2][E2c2e2][D2c2d2][D2^B2d2] & GGGG GGGG | 
[V:2] [C,,4G,,4][G,,4G,4] | 
[V:1] [G4=B4c4][G2A2c2][F2A2c2] & CCCC CCCC | 
[V:2] [^E,,4^E,4][F,,4F,4] | 
[V:1] [D4F4G4][C2F2G2][C2E2^A2] | 
[V:2] G,G,G,G, G,G,G,G, & [^B,,,4^B,,4][C,,4C,4] | 
[V:1] [C4E4^A4][^B,2D2G2][C2E2A2] | 
[V:2] G,G,G,G, G,G,G,G, & [G,,,6G,,6][C,,2G,,2] | 
[V:1] [C4E4^A4][^B,2D2G2][C2E2A2] | 
[V:2] G,G,G,G, G,G,G,G, & [G,,,6G,,6][C,,2G,,2] | 
[V:1] [C2E2^A2][^B,2D2G2]_A,A,A,A, | 
[V:2] G,,,4_A,=F,_G,_E, & [G,,G,]G,[G,,G,]G,z4 | 
[V:1]  [K:Db] f>dA4B2 | 
[V:2]  [K:Db] D,A,[DF]A, A,A,A,A, | 
[V:1] c6d2 | 
[V:2] [EG]A,A,A, B,A,[DF]A, | 
[V:1] e>fg4f2 | 
[V:2] [CG]A,/D/BA, A,A,[DA]A, | 
[V:1] f2>e2 d>=d (5:4:10e//f//e//d//e//=e//f//a//=g//_g// | 
[V:2] [CA]A,GA, [DF]A,[CG]A, | 
[V:1] f>dA4B2 | 
[V:2] D,A,[DF]A, A,A,A,A, | 
[V:1] c2z2z2!accent!b2- | 
[V:2] [EG]A,A,A, B,A,z2 | 
[V:1] b2a2g2c2 | 
[V:2] z8 | 
[V:1] f2e2d2B2 | 
[V:2] z8 | 
[V:1] [E8G8] & B,4C4 | 
[V:2] z A,A,A, A,A,A,A, & A,,8 | 
[V:1] F8 & D4-DDE3/D/ | 
[V:2] A,A,A,A, A,A,A,A, & D,8 | 
[V:1] [E8G8] & D2C2B2C2 | 
[V:2] A,A,A,A, A,A,A,A, & A,,8 | 
[V:1] [C8E8G8] | 
[V:2] A,A,A,A, A,A,A,A, & A,,8 | 
[V:1] [D8F8] | 
[V:2] A,A,A,A, A,A,A,A, & D,4A,,4 | 
[V:1] !fermata![D8F8] |]  
[V:2] !fermata![D,,8A,8] |]  


